X: 1
T: Popcorn Behaviour
R: reel
C: Jay Ungar
Z: 2021 John Chambers <jc:trillian.mit.edu>
S: https://thesession.org/tunes/1735 2021-5-31 (with a few simplifications from other versions)
M: C|
L: 1/8
K: Am
e^f^g \
| "Am"a2ef ecAc | "Em"BABc BGEG | "Am"AEAc AE A{B}c | "Em"BABc Be^f^g |
| "Am"a2ef ecAc | "Em"BABc BGEG | "Dm"DFAc dcAF | "Em"ECDB, "Am"A, :|
|: B,CD \
| "Am"EA,A,E "F"FA,A,F | "Am"EA,A,E "Dm"DA,A,D | "Am"A,B,CD EDEA | "C"GECD EFED |
| "Am"EA,A,E "F"FA,A,F | "D"^FA,A,^F "F"=FA,A,F | "Dm"DFAc dcAF | "Em"ECDB, "Am"A, |]
